Numix-Circle/48x48/apps/steam_icon_43160.svg

<svg xmlns="http://www.w3.org/2000/svg" viewBox="0 0 48 48">
 <defs>
  <clipPath id="clipPath-619459513">
   <g transform="translate(0,-1004.3622)">
    <path d="m -24 13 c 0 1.105 -0.672 2 -1.5 2 -0.828 0 -1.5 -0.895 -1.5 -2 0 -1.105 0.672 -2 1.5 -2 0.828 0 1.5 0.895 1.5 2 z" transform="matrix(15.333333,0,0,11.5,414.99999,878.8622)" style="fill:#1890d0"/>
   </g>
  </clipPath>
  <linearGradient id="linearGradient3841" x1="1" x2="47" gradientUnits="userSpaceOnUse">
   <stop style="stop-color:#4c340c;stop-opacity:1"/>
   <stop offset="1" style="stop-color:#5d400f;stop-opacity:1"/>
  </linearGradient>
 </defs>
 <g>
  <path d="m 36.31 5 c 5.859 4.062 9.688 10.831 9.688 18.5 c 0 12.426 -10.07 22.5 -22.5 22.5 c -7.669 0 -14.438 -3.828 -18.5 -9.688 c 1.037 1.822 2.306 3.499 3.781 4.969 c 4.085 3.712 9.514 5.969 15.469 5.969 c 12.703 0 23 -10.298 23 -23 c 0 -5.954 -2.256 -11.384 -5.969 -15.469 c -1.469 -1.475 -3.147 -2.744 -4.969 -3.781 z m 4.969 3.781 c 3.854 4.113 6.219 9.637 6.219 15.719 c 0 12.703 -10.297 23 -23 23 c -6.081 0 -11.606 -2.364 -15.719 -6.219 c 4.16 4.144 9.883 6.719 16.219 6.719 c 12.703 0 23 -10.298 23 -23 c 0 -6.335 -2.575 -12.06 -6.719 -16.219 z" style="opacity:0.05"/>
  <path d="m 41.28 8.781 c 3.712 4.085 5.969 9.514 5.969 15.469 c 0 12.703 -10.297 23 -23 23 c -5.954 0 -11.384 -2.256 -15.469 -5.969 c 4.113 3.854 9.637 6.219 15.719 6.219 c 12.703 0 23 -10.298 23 -23 c 0 -6.081 -2.364 -11.606 -6.219 -15.719 z" style="opacity:0.1"/>
  <path d="m 31.25 2.375 c 8.615 3.154 14.75 11.417 14.75 21.13 c 0 12.426 -10.07 22.5 -22.5 22.5 c -9.708 0 -17.971 -6.135 -21.12 -14.75 a 23 23 0 0 0 44.875 -7 a 23 23 0 0 0 -16 -21.875 z" style="opacity:0.2"/>
 </g>
 <g transform="matrix(0,-1,1,0,0,48)" style="fill:url(#linearGradient3841);fill-opacity:1">
  <path d="M 24,1 C 36.703,1 47,11.297 47,24 47,36.703 36.703,47 24,47 11.297,47 1,36.703 1,24 1,11.297 11.297,1 24,1 z"/>
 </g>
 <g transform="translate(39.661017,-1.7288136)">
  <g style="clip-path:url(#clipPath-619459513)">
   <!-- color: #ed0112 -->
  </g>
 </g>
 <g>
  <path d="m 40.03 7.531 c 3.712 4.084 5.969 9.514 5.969 15.469 0 12.703 -10.297 23 -23 23 c -5.954 0 -11.384 -2.256 -15.469 -5.969 4.178 4.291 10.01 6.969 16.469 6.969 c 12.703 0 23 -10.298 23 -23 0 -6.462 -2.677 -12.291 -6.969 -16.469 z" style="opacity:0.1"/>
 </g>
 <path d="m 13 15 l 0 2 l 6 7 l 6 8 l 6 -7 l 0 12 l 6 0 l 0 -22 l -6 0 l -6 8 l -6 -8 l -6 0 z m 0 3 l 0 19 l 6 0 l 0 -12 l -6 -7 z" style="fill:#000;opacity:0.1;fill-opacity:1;stroke:none"/>
 <path d="m 12 36 6 0 0 -12 c 0 0 -6 -7 -6 -7 z" style="fill:#dea024;fill-opacity:1;stroke:none"/>
 <path d="m 18 23 6 8 6 -7 0 12 6 0 0 -22 -6 0 -6 8 -6 -8 -6 0 0 2 z" style="fill:#dea024;fill-opacity:1;stroke:none"/>
</svg>

<?xml version="1.0" encoding="UTF-8" standalone="no"?>
<svg
   xmlns:dc="http://purl.org/dc/elements/1.1/"
   xmlns:cc="http://creativecommons.org/ns#"
   xmlns:rdf="http://www.w3.org/1999/02/22-rdf-syntax-ns#"
   xmlns:svg="http://www.w3.org/2000/svg"
   xmlns="http://www.w3.org/2000/svg"
   xmlns:xlink="http://www.w3.org/1999/xlink"
   xmlns:sodipodi="http://sodipodi.sourceforge.net/DTD/sodipodi-0.dtd"
   xmlns:inkscape="http://www.inkscape.org/namespaces/inkscape"
   viewBox="0 0 48 48"
   id="svg2"
   version="1.1"
   inkscape:version="0.48.5 r10040"
   width="100%"
   height="100%"
   sodipodi:docname="steam_icon_43160.svg">
  <metadata
     id="metadata67">
    <rdf:RDF>
      <cc:Work
         rdf:about="">
        <dc:format>image/svg+xml</dc:format>
        <dc:type
           rdf:resource="http://purl.org/dc/dcmitype/StillImage" />
      </cc:Work>
    </rdf:RDF>
  </metadata>
  <sodipodi:namedview
     pagecolor="#ffffff"
     bordercolor="#666666"
     borderopacity="1"
     objecttolerance="10"
     gridtolerance="10"
     guidetolerance="10"
     inkscape:pageopacity="0"
     inkscape:pageshadow="2"
     inkscape:window-width="1280"
     inkscape:window-height="998"
     id="namedview65"
     showgrid="true"
     inkscape:zoom="27.812867"
     inkscape:cx="21.961847"
     inkscape:cy="21.986537"
     inkscape:window-x="0"
     inkscape:window-y="0"
     inkscape:window-maximized="1"
     inkscape:current-layer="svg2">
    <inkscape:grid
       type="xygrid"
       id="grid3055" />
  </sodipodi:namedview>
  <defs
     id="defs4">
    <linearGradient
       id="linearGradient3835">
      <stop
         style="stop-color:#4c340c;stop-opacity:1;"
         offset="0"
         id="stop3837" />
      <stop
         style="stop-color:#5d400f;stop-opacity:1;"
         offset="1"
         id="stop3839" />
    </linearGradient>
    <linearGradient
       id="linearGradient3764"
       y1="47"
       x2="0"
       y2="1"
       gradientUnits="userSpaceOnUse">
      <stop
         stop-color="#d90110"
         stop-opacity="1"
         id="stop7" />
      <stop
         offset="1"
         stop-color="#ed0112"
         stop-opacity="1"
         id="stop9" />
    </linearGradient>
    <clipPath
       id="clipPath-611444016">
      <g
         transform="translate(0,-1004.3622)"
         id="g12">
        <path
           d="m -24 13 c 0 1.105 -0.672 2 -1.5 2 -0.828 0 -1.5 -0.895 -1.5 -2 0 -1.105 0.672 -2 1.5 -2 0.828 0 1.5 0.895 1.5 2 z"
           transform="matrix(15.333333,0,0,11.5,414.99999,878.8622)"
           fill="#1890d0"
           id="path14" />
      </g>
    </clipPath>
    <clipPath
       id="clipPath-619459513">
      <g
         transform="translate(0,-1004.3622)"
         id="g17">
        <path
           d="m -24 13 c 0 1.105 -0.672 2 -1.5 2 -0.828 0 -1.5 -0.895 -1.5 -2 0 -1.105 0.672 -2 1.5 -2 0.828 0 1.5 0.895 1.5 2 z"
           transform="matrix(15.333333,0,0,11.5,414.99999,878.8622)"
           fill="#1890d0"
           id="path19" />
      </g>
    </clipPath>
    <clipPath
       clipPathUnits="userSpaceOnUse"
       id="clipPath3059">
      <rect
         style="opacity:0.1;fill:#efad4f;fill-opacity:1;fill-rule:nonzero;stroke:none"
         id="rect3061"
         width="30"
         height="29"
         x="-11"
         y="14" />
    </clipPath>
    <linearGradient
       inkscape:collect="always"
       xlink:href="#linearGradient3835"
       id="linearGradient3841"
       x1="1"
       y1="24"
       x2="47"
       y2="24"
       gradientUnits="userSpaceOnUse" />
    <linearGradient
       inkscape:collect="always"
       xlink:href="#linearGradient3835"
       id="linearGradient3843"
       gradientUnits="userSpaceOnUse"
       x1="1"
       y1="24"
       x2="47"
       y2="24" />
  </defs>
  <g
     id="g21">
    <path
       d="m 36.31 5 c 5.859 4.062 9.688 10.831 9.688 18.5 c 0 12.426 -10.07 22.5 -22.5 22.5 c -7.669 0 -14.438 -3.828 -18.5 -9.688 c 1.037 1.822 2.306 3.499 3.781 4.969 c 4.085 3.712 9.514 5.969 15.469 5.969 c 12.703 0 23 -10.298 23 -23 c 0 -5.954 -2.256 -11.384 -5.969 -15.469 c -1.469 -1.475 -3.147 -2.744 -4.969 -3.781 z m 4.969 3.781 c 3.854 4.113 6.219 9.637 6.219 15.719 c 0 12.703 -10.297 23 -23 23 c -6.081 0 -11.606 -2.364 -15.719 -6.219 c 4.16 4.144 9.883 6.719 16.219 6.719 c 12.703 0 23 -10.298 23 -23 c 0 -6.335 -2.575 -12.06 -6.719 -16.219 z"
       opacity="0.05"
       id="path23" />
    <path
       d="m 41.28 8.781 c 3.712 4.085 5.969 9.514 5.969 15.469 c 0 12.703 -10.297 23 -23 23 c -5.954 0 -11.384 -2.256 -15.469 -5.969 c 4.113 3.854 9.637 6.219 15.719 6.219 c 12.703 0 23 -10.298 23 -23 c 0 -6.081 -2.364 -11.606 -6.219 -15.719 z"
       opacity="0.1"
       id="path25" />
    <path
       d="m 31.25 2.375 c 8.615 3.154 14.75 11.417 14.75 21.13 c 0 12.426 -10.07 22.5 -22.5 22.5 c -9.708 0 -17.971 -6.135 -21.12 -14.75 a 23 23 0 0 0 44.875 -7 a 23 23 0 0 0 -16 -21.875 z"
       opacity="0.2"
       id="path27" />
  </g>
  <g
     id="g29"
     style="fill:url(#linearGradient3841);fill-opacity:1"
     transform="matrix(0,-1,1,0,0,48)">
    <path
       d="M 24,1 C 36.703,1 47,11.297 47,24 47,36.703 36.703,47 24,47 11.297,47 1,36.703 1,24 1,11.297 11.297,1 24,1 z"
       id="path31"
       style="fill:url(#linearGradient3843);fill-opacity:1"
       inkscape:connector-curvature="0" />
  </g>
  <g
     id="g49"
     transform="translate(39.661017,-1.7288136)">
    <g
       clip-path="url(#clipPath-619459513)"
       id="g51">
      <!-- color: #ed0112 -->
      <g
         id="g53">
        <path
           d="m 12,32 0,-16 4,0 0,16 m -4,0"
           id="path55"
           inkscape:connector-curvature="0"
           style="fill:#f9f9f9" />
        <path
           d="m 32,32 0,-16 4,0 0,16 m -4,0"
           id="path57"
           inkscape:connector-curvature="0"
           style="fill:#f9f9f9" />
        <path
           d="m 15,16 1,0 8,8 8,-8 1,0 0,4 -8,7 -2,0 -8,-7 m 0,-4"
           id="path59"
           inkscape:connector-curvature="0"
           style="fill:#f9f9f9" />
      </g>
    </g>
  </g>
  <g
     id="g61">
    <path
       d="m 40.03 7.531 c 3.712 4.084 5.969 9.514 5.969 15.469 0 12.703 -10.297 23 -23 23 c -5.954 0 -11.384 -2.256 -15.469 -5.969 4.178 4.291 10.01 6.969 16.469 6.969 c 12.703 0 23 -10.298 23 -23 0 -6.462 -2.677 -12.291 -6.969 -16.469 z"
       opacity="0.1"
       id="path63" />
  </g>
  <path
     style="fill:#000000;fill-opacity:1;stroke:none;opacity:0.1"
     d="M 13 15 L 13 17 L 19 24 L 25 32 L 31 25 L 31 37 L 37 37 L 37 15 L 31 15 L 25 23 L 19 15 L 13 15 z M 13 18 L 13 37 L 19 37 L 19 25 L 13 18 z "
     id="path3845" />
  <path
     style="fill:#dea024;stroke:none;stroke-width:1px;stroke-linecap:butt;stroke-linejoin:miter;stroke-opacity:1;fill-opacity:1"
     d="m 12,36 6,0 0,-12 c 0,0 -6,-7 -6,-7 z"
     id="path3063"
     inkscape:connector-curvature="0" />
  <path
     style="fill:#dea024;stroke:none;stroke-width:1px;stroke-linecap:butt;stroke-linejoin:miter;stroke-opacity:1;fill-opacity:1"
     d="m 18,23 6,8 6,-7 0,12 6,0 0,-22 -6,0 -6,8 -6,-8 -6,0 0,2 z"
     id="path3833"
     inkscape:connector-curvature="0" />
</svg>
